_inc/systems/logos/apfm1000.svg

<?xml version="1.0" encoding="UTF-8" standalone="no"?><svg viewBox="0 0 618 99" version="1.1" id="svg1" xmlns="http://www.w3.org/2000/svg" xmlns:svg="http://www.w3.org/2000/svg"><path fill="currentColor" stroke="currentColor" stroke-width=".09" d="M146.2 14.3c11.3-1.3 22.5.3 33.8.1 21.9-.2 43.8.3 65.7-.1-4.2 11.2-8.3 22.5-11.9 34-20.2.3-40.4.1-60.5.1-3.2 8.8-6.4 17.5-9.5 26.3-13.1.1-26.3-.3-39.4 0 7.6-20 14.5-40.3 21.8-60.4m36 7.7c-2.1 6.4-4.3 12.8-6.3 19.2 7 .2 14.1.3 21.1.2 2.4-6.4 4.8-12.7 7-19.1-7.3-.2-14.6-.3-21.8-.3ZM31 14.6c21-.2 42 0 63-.1 12.7.1 25.4-.1 38.1.2-7.2 20-14.6 39.8-21.9 59.7-33.5 0-67 .2-100.5-.1 3.5-10.8 7.4-21.4 11.4-32.1q31.35 0 62.7-.3c2.4-6.3 4.6-12.6 6.7-19-5.2-.1-10.4-.3-15.6-.3-2.7.1-5.5 0-8.1 1-2.6 4.3-3.8 9.2-5.6 13.9-12.7-.1-25.5.1-38.3-.2 2.5-7.6 5.3-15.1 8.1-22.7m26.1 34.1c-2.1 6.1-4.3 12.1-6.4 18.2 8 .2 16.1.1 24.1 0 2.4-6 4.6-12 6.7-18.1-8.1-.4-16.3-.3-24.4-.1Zm198.2-34c22.2-.4 44.4 0 66.7-.2 12.2.1 24.4-.2 36.6.3-.9 2.3-1.8 4.7-3.2 6.8-3.1.9-6.3.8-9.4.8-18-.3-36-.1-53.9-.2a3666 3666 0 0 1-6.9 18.4c21.4 0 42.9-.1 64.3.3-1.1 2.4-1.9 4.9-3.5 7.1-2.9.8-6 .6-8.9.7-14.7-.3-29.4.2-44.1-.1-3.4 0-7-.2-10.3.8-1.7 2.4-2.5 5.2-3.5 7.9-1.9 5.9-4.1 11.7-6.3 17.4H234c7-20 14.4-39.9 21.3-60Zm122.5 16.9c5.4 0 10.8-.1 16.3 0 3.9 9.5 7.7 19.1 11.7 28.6 2.8-6.4 5.5-12.8 7.9-19.4 1.3-3.1 2.3-6.4 4.7-8.8 5.1-1.1 10.4-.4 15.6-.3v41.8c-3.9-.1-7.8-.2-11.7-.1 0-9.6.3-19.2-.3-28.7-4.5 9.4-8.2 19.2-12.2 28.9-2.4-.1-5-.1-7.4-.6-2.3-2.8-3.5-6.4-4.8-9.7-2.4-6.6-5.3-13.1-8.2-19.5-.2 9.8 0 19.7-.2 29.6h-11.4c-.2-13.9-.2-27.9 0-41.8Zm117.6.9c6.1-1.2 13.2-.3 17.8 4.2 4.3 4.2 5.7 10.5 5.6 16.3-.1 5.4-1.6 11.3-5.7 15.1-4 3.7-9.8 4.7-15.1 4.3-4.5-.2-8.9-2.1-11.8-5.6-3.1-3.5-4.3-8.2-4.5-12.8-.2-4.9.5-10 3.1-14.3 2.2-3.8 6.3-6.3 10.6-7.2m2.1 6.7c-2.6.7-4 3.3-4.6 5.7-1.1 4.4-1.2 9.1-.3 13.6.6 2.4 1.4 5 3.7 6.3 2.5 1.4 5.9 1.6 8.4 0 1.9-1.4 2.6-3.8 3.1-6 .8-4.2.8-8.5.1-12.6-.5-2.2-1.2-4.6-3-6.1-2.2-1.5-5-1.6-7.4-.9Zm36.9-6.7c5.9-1.2 12.8-.5 17.5 3.6 4.4 4 6 10.1 6.1 15.9.1 5.6-1.3 11.6-5.3 15.7-4.1 4-10.2 5.1-15.7 4.7-4.5-.3-8.8-2.3-11.7-5.7-3.2-3.8-4.3-8.9-4.4-13.7-.1-5 .8-10.2 3.8-14.3 2.3-3.2 5.9-5.4 9.7-6.2m2.1 6.8c-2.6.7-3.8 3.4-4.4 5.7-1.1 4.6-1.2 9.5-.1 14.1.6 2.3 1.6 4.9 4 6 3 1.4 7.3 1.2 9.4-1.7 1.7-2.8 2-6.2 2.2-9.4.1-4 0-8.1-1.7-11.8-1.6-3.5-6.2-4-9.4-2.9Zm36.9-6.8c6.6-1.3 14.5-.3 19 5.1 4.5 5.2 5.2 12.7 4.4 19.3-.7 5.4-3.5 10.8-8.5 13.4-4.9 2.4-10.7 2.8-16 1.4-5.8-1.5-10.2-6.6-11.5-12.4-1.3-5.9-1.1-12.4 1.5-18 2-4.5 6.3-7.7 11.1-8.8m2.1 6.8c-2.3.7-3.5 3-4.1 5.1-1.2 4.7-1.3 9.7-.3 14.4.5 2.2 1.3 4.6 3.3 5.9 2.5 1.5 5.9 1.8 8.5.2 2.1-1.4 2.9-4.1 3.4-6.5.7-4.2.7-8.5-.2-12.7-.5-2.1-1.2-4.5-3.1-5.8a9.3 9.3 0 0 0-7.5-.6Zm-115-3.7c2.4-2.1 5.6-2.8 8.7-3.2.3 13.3.2 26.6 0 39.9-3.3-.1-6.6-.1-9.9-.1.1-9.1.1-18.2-.1-27.3l-10-.3c0-1.3.1-2.6.2-3.9 4.1-.6 7.9-2.5 11.1-5.1Z" id="path1" style="fill:#ffffff"/></svg>

<?xml version="1.0" encoding="UTF-8" ?>
<!DOCTYPE svg PUBLIC "-//W3C//DTD SVG 1.1//EN" "http://www.w3.org/Graphics/SVG/1.1/DTD/svg11.dtd">
<svg width="618pt" height="99pt" viewBox="0 0 618 99" version="1.1" xmlns="http://www.w3.org/2000/svg">
<path fill="#ffffff" stroke="#ffffff" stroke-width="0.09375" opacity="1.00" d=" M 146.2 14.3 C 157.5 13.0 168.7 14.6 180.0 14.4 C 201.9 14.2 223.8 14.7 245.7 14.3 C 241.5 25.5 237.4 36.8 233.8 48.3 C 213.6 48.6 193.4 48.4 173.3 48.4 C 170.1 57.2 166.9 65.9 163.8 74.7 C 150.7 74.8 137.5 74.4 124.4 74.7 C 132.0 54.7 138.9 34.4 146.2 14.3 M 182.2 22.0 C 180.1 28.4 177.9 34.8 175.9 41.2 C 182.9 41.4 190.0 41.5 197.0 41.4 C 199.4 35.0 201.8 28.7 204.0 22.3 C 196.7 22.1 189.4 22.0 182.2 22.0 Z" />
<path fill="#ffffff" stroke="#ffffff" stroke-width="0.09375" opacity="1.00" d=" M 31.0 14.6 C 52.0 14.4 73.0 14.6 94.0 14.5 C 106.7 14.6 119.4 14.4 132.1 14.7 C 124.9 34.7 117.5 54.5 110.2 74.4 C 76.7 74.4 43.2 74.6 9.7 74.3 C 13.2 63.5 17.1 52.9 21.1 42.2 C 42.0 42.2 62.9 42.1 83.8 41.9 C 86.2 35.6 88.4 29.3 90.5 22.9 C 85.3 22.8 80.1 22.6 74.9 22.6 C 72.2 22.7 69.4 22.6 66.8 23.6 C 64.2 27.9 63.0 32.8 61.2 37.5 C 48.5 37.4 35.7 37.6 22.9 37.3 C 25.4 29.7 28.2 22.2 31.0 14.6 M 57.1 48.7 C 55.0 54.8 52.8 60.8 50.7 66.9 C 58.7 67.1 66.8 67.0 74.8 66.9 C 77.2 60.9 79.4 54.9 81.5 48.8 C 73.4 48.4 65.2 48.5 57.1 48.7 Z" />
<path fill="#ffffff" stroke="#ffffff" stroke-width="0.09375" opacity="1.00" d=" M 255.3 14.7 C 277.5 14.3 299.7 14.7 322.0 14.5 C 334.2 14.6 346.4 14.3 358.6 14.8 C 357.7 17.1 356.8 19.5 355.4 21.6 C 352.3 22.5 349.1 22.4 346.0 22.4 C 328.0 22.1 310.0 22.3 292.1 22.2 C 289.8 28.4 287.5 34.5 285.2 40.6 C 306.6 40.6 328.1 40.5 349.5 40.9 C 348.4 43.3 347.6 45.8 346.0 48.0 C 343.1 48.8 340.0 48.6 337.1 48.7 C 322.4 48.4 307.7 48.9 293.0 48.6 C 289.6 48.6 286.0 48.4 282.7 49.4 C 281.0 51.8 280.2 54.6 279.2 57.3 C 277.3 63.2 275.1 69.0 272.9 74.7 C 260.0 74.7 247.0 74.7 234.0 74.7 C 241.0 54.7 248.4 34.8 255.3 14.7 Z" />
<path fill="#ffffff" stroke="#ffffff" stroke-width="0.09375" opacity="1.00" d=" M 377.8 31.6 C 383.2 31.6 388.6 31.5 394.1 31.6 C 398.0 41.1 401.8 50.7 405.8 60.2 C 408.6 53.8 411.3 47.4 413.7 40.8 C 415.0 37.7 416.0 34.4 418.4 32.0 C 423.5 30.9 428.8 31.6 434.0 31.7 C 434.0 45.6 434.0 59.5 434.0 73.5 C 430.1 73.4 426.2 73.3 422.3 73.4 C 422.3 63.8 422.6 54.2 422.0 44.7 C 417.5 54.1 413.8 63.9 409.8 73.6 C 407.4 73.5 404.8 73.5 402.4 73.0 C 400.1 70.2 398.9 66.6 397.6 63.3 C 395.2 56.7 392.3 50.2 389.4 43.8 C 389.2 53.6 389.4 63.5 389.2 73.4 C 385.4 73.4 381.6 73.4 377.8 73.4 C 377.6 59.5 377.6 45.5 377.8 31.6 Z" />
<path fill="#ffffff" stroke="#ffffff" stroke-width="0.09375" opacity="1.00" d=" M 495.4 32.5 C 501.5 31.3 508.6 32.2 513.2 36.7 C 517.5 40.9 518.9 47.2 518.8 53.0 C 518.7 58.4 517.2 64.3 513.1 68.1 C 509.1 71.8 503.3 72.8 498.0 72.4 C 493.5 72.2 489.1 70.3 486.2 66.8 C 483.1 63.3 481.9 58.6 481.7 54.0 C 481.5 49.1 482.2 44.0 484.8 39.7 C 487.0 35.9 491.1 33.4 495.4 32.5 M 497.5 39.2 C 494.9 39.9 493.5 42.5 492.9 44.9 C 491.8 49.3 491.7 54.0 492.6 58.5 C 493.2 60.9 494.0 63.5 496.3 64.8 C 498.8 66.2 502.2 66.4 504.7 64.8 C 506.6 63.4 507.3 61.0 507.8 58.8 C 508.6 54.6 508.6 50.3 507.9 46.2 C 507.4 44.0 506.7 41.6 504.9 40.1 C 502.7 38.6 499.9 38.5 497.5 39.2 Z" />
<path fill="#ffffff" stroke="#ffffff" stroke-width="0.09375" opacity="1.00" d=" M 534.4 32.5 C 540.3 31.3 547.2 32.0 551.9 36.1 C 556.3 40.1 557.9 46.2 558.0 52.0 C 558.1 57.6 556.7 63.6 552.7 67.7 C 548.6 71.7 542.5 72.8 537.0 72.4 C 532.5 72.1 528.2 70.1 525.3 66.7 C 522.1 62.9 521.0 57.8 520.9 53.0 C 520.8 48.0 521.7 42.8 524.7 38.7 C 527.0 35.5 530.6 33.3 534.4 32.5 M 536.5 39.3 C 533.9 40.0 532.7 42.7 532.1 45.0 C 531.0 49.6 530.9 54.5 532.0 59.1 C 532.6 61.4 533.6 64.0 536.0 65.1 C 539.0 66.5 543.3 66.3 545.4 63.4 C 547.1 60.6 547.4 57.2 547.6 54.0 C 547.7 50.0 547.6 45.9 545.9 42.2 C 544.3 38.7 539.7 38.2 536.5 39.3 Z" />
<path fill="#ffffff" stroke="#ffffff" stroke-width="0.09375" opacity="1.00" d=" M 573.4 32.5 C 580.0 31.2 587.9 32.2 592.4 37.6 C 596.9 42.8 597.6 50.3 596.8 56.9 C 596.1 62.3 593.3 67.7 588.3 70.3 C 583.4 72.7 577.6 73.1 572.3 71.7 C 566.5 70.2 562.1 65.1 560.8 59.3 C 559.5 53.4 559.7 46.9 562.3 41.3 C 564.3 36.8 568.6 33.6 573.4 32.5 M 575.5 39.3 C 573.2 40.0 572.0 42.3 571.4 44.4 C 570.2 49.1 570.1 54.1 571.1 58.8 C 571.6 61.0 572.4 63.4 574.4 64.7 C 576.9 66.2 580.3 66.5 582.9 64.9 C 585.0 63.5 585.8 60.8 586.3 58.4 C 587.0 54.2 587.0 49.9 586.1 45.7 C 585.6 43.6 584.9 41.2 583.0 39.9 C 580.8 38.6 577.9 38.5 575.5 39.3 Z" />
<path fill="#ffffff" stroke="#ffffff" stroke-width="0.09375" opacity="1.00" d=" M 460.5 35.6 C 462.9 33.5 466.1 32.8 469.2 32.4 C 469.5 45.7 469.4 59.0 469.2 72.3 C 465.9 72.2 462.6 72.2 459.3 72.2 C 459.4 63.1 459.4 54.0 459.2 44.9 C 455.9 44.8 452.5 44.7 449.2 44.6 C 449.2 43.3 449.3 42.0 449.4 40.7 C 453.5 40.1 457.3 38.2 460.5 35.6 Z" />
</svg>
